svgs/light/piano.svg

<svg xmlns="http://www.w3.org/2000/svg" viewBox="0 0 512 512"><!-- Font Awesome Pro 6.0.0-alpha2 by @fontawesome - https://fontawesome.com License - https://fontawesome.com/license (Commercial License) --><path d="M476.514 270.195L417.842 240.987C396.171 230.199 384.129 207.67 383.996 183.462C383.438 82.064 301.029 0 199.5 0H184.5C82.603 0 0 82.603 0 184.5V448C0 483.2 28.8 512 64 512H448C483.2 512 512 483.2 512 448V327.5C512 303.213 498.256 281.018 476.514 270.195ZM448 480H64C46.327 480 32 465.673 32 448V384H80V416C80 424.8 87.2 432 96 432H96C104.8 432 112 424.8 112 416V384H144V416C144 424.8 151.2 432 160 432H160C168.8 432 176 424.8 176 416V384H208V416C208 424.8 215.2 432 224 432H224C232.8 432 240 424.8 240 416V384H336V416C336 424.8 343.2 432 352 432H352C360.8 432 368 424.8 368 416V384H400V416C400 424.8 407.2 432 416 432H416C424.8 432 432 424.8 432 416V384H480V448C480 465.673 465.673 480 448 480ZM480 352H32V184.5C32 100.375 100.375 32 184.5 32H199.5C283.625 32 352 100.375 352 184.5C351.875 220.875 372.5 254.125 405.125 270.25L462.25 298.875C473.125 304.375 480 315.375 480 327.5V352Z"/></svg>

<svg xmlns="http://www.w3.org/2000/svg" viewBox="0 0 512 512"><!--! Font Awesome Pro 6.3.0 by @fontawesome - https://fontawesome.com License - https://fontawesome.com/license (Commercial License) Copyright 2023 Fonticons, Inc. --><path d="M476.6 270.2l-58.72-29.23c-21.67-10.79-33.71-33.32-33.85-57.52C383.4 82.07 301 0 199.5 0h-15C82.6 0 0 82.6 0 184.5V448c0 35.2 28.8 64 64 64h384c35.2 0 64-28.8 64-64v-120.5C512 303.2 498.3 281 476.6 270.2zM448 480H64c-17.67 0-32-14.33-32-32v-64h48v32c0 8.8 7.2 16 15.1 16C104.8 432 112 424.8 112 416v-32h32v32c0 8.8 7.2 16 15.1 16C168.8 432 176 424.8 176 416v-32h32v32c0 8.8 7.2 16 16 16s16-7.2 16-16v-32h96v32c0 8.8 7.2 16 16 16s16-7.2 16-16v-32h32v32c0 8.8 7.2 16 16 16s16-7.2 16-16v-32H480v64C480 465.7 465.7 480 448 480zM480 352H32V184.5C32 100.4 100.4 32 184.5 32h15C283.6 32 352 100.4 352 184.5c-.125 36.38 20.5 69.62 53.13 85.75l57.13 28.63C473.1 304.4 480 315.4 480 327.5V352z"/></svg>
